X: 565
T: Flatbush Waltz
C:Andy Statman
B: jims roots
M:3/4
L:1/8
Q: 1/4=100
K:Bb
V:1 
%Tabledited by Mike Stangeland
%240
"Gm"G,2 [D2B2g2][D2B2g2] |G,2 [D2B2g2][D2B2g2] |G,2 [D2B2g2][D2B2g2] |G,2 [D2B2g2][D2B2g2]|:d3g dc | B2 G2 G2 | d3g dB |
"Cm"c3e dc | "Gm"GA Bc dB | "Cm"cG c2 c2 | "Gm"B3c "Ab"_AB | "Gm"GG, B,D GB |d3g dc |
B2 G2 G2 | d3g dB | "Cm"c3f _e/d/ c | "Bb"Bc de fd | "Cm"cG c2 c2 | "Gm"B3c "G#"_AB | "Gm"GG, B,D GB||
"Cm"e2 d2 c2 | "Gm"d2 G2 c2 | B3c "G#"_AB | "Gm"G[DBg] [DBg][DBg] [DBg][DBg]:|
V:d2b2 
-[d2b2] ag | "D"aD _GA d_g | "Eb"g2 f3e | "Bb"[f6d6] | "Cm"e2 d2 c2 | "Gm"d2 g2 a2 |
V:d3b3 
a bc' | "D"a6 | "Gm"[d4b4] ag | "D"aD _GA d_g | "Eb"g2 f3e | "Bb"[d6f6] |
% abcbook-tune_id 6298c25dedff83934655515b


% abcbook-boost 0
% abcbook-tablature 
% abcbook-transpose 
% abcbook-lastupdated 1654178397990
% abcbook-soundfonts 
% abcbook-repeats 1


